flags/sz.svg

<svg width="512" height="512" viewBox="0 0 512 512" fill="none" xmlns="http://www.w3.org/2000/svg">
<path d="M512 128V384H0L1.11901e-05 128L512 128Z" fill="var(--flag-palette-dark-red, #a2001d)"/>
<path d="M512 368V512L0 512L6.29444e-06 368L512 368Z" fill="var(--flag-palette-blue, #0052b4)"/>
<path d="M512 2.23802e-05V144L0 144L6.29444e-06 0L512 2.23802e-05Z" fill="var(--flag-palette-black, #333333)"/>
<path fill-rule="evenodd" clip-rule="evenodd" d="M3.05176e-05 384L512 384L512 352L3.33151e-05 352L3.05176e-05 384ZM512 128L5.28978e-05 128L5.01003e-05 160L512 160L512 128Z" fill="var(--flag-palette-yellow, #ffda44)"/>
<path fill-rule="evenodd" clip-rule="evenodd" d="M378.435 200.348H133.565V222.609H378.435V200.348ZM422.956 244.87H89.043V267.131H422.956V244.87Z" fill="var(--flag-palette-yellow, #ffda44)"/>
<path d="M380.025 256C380.025 256 322.782 322.783 256 322.783C189.218 322.783 189.217 256 189.217 256C189.217 256 189.217 189.217 256 189.217C322.783 189.217 380.025 256 380.025 256Z" fill="var(--flag-palette-white, #eeeeee)"/>
<path d="M256 322.783C189.217 322.783 131.975 256 131.975 256C131.975 256 189.217 189.217 256 189.217" fill="var(--flag-palette-black, #333333)"/>
<path d="M211.478 233.738H233.739V278.26H211.478V233.738Z" fill="var(--flag-palette-white, #eeeeee)"/>
<path d="M278.261 233.738H300.522V278.26H278.261V233.738Z" fill="var(--flag-palette-black, #333333)"/>
<path fill-rule="evenodd" clip-rule="evenodd" d="M111.304 255.999C111.304 268.294 101.338 278.26 89.0432 278.26C76.7488 278.26 66.7822 268.294 66.7822 255.999C66.7822 243.705 76.7488 233.738 89.0432 233.738C101.338 233.738 111.304 243.705 111.304 255.999ZM445.218 255.999C445.218 268.294 435.252 278.26 422.957 278.26C410.663 278.26 400.696 268.294 400.696 255.999C400.696 243.705 410.663 233.738 422.957 233.738C435.252 233.738 445.218 243.705 445.218 255.999Z" fill="var(--flag-palette-dark-brown, #584528)"/>
</svg>

<svg xmlns="http://www.w3.org/2000/svg" width="512" height="512" fill="none"><path fill="var(--flag-palette-dark-red, #a2001d)" d="M512 128v256H0V128z"/><path fill="var(--flag-palette-blue, #0052b4)" d="M512 368v144H0V368z"/><path fill="var(--flag-palette-black, #333333)" d="M512 0v144H0V0z"/><path fill="var(--flag-palette-yellow, #ffda44)" fill-rule="evenodd" d="M0 384h512v-32H0zm512-256H0v32h512zm-133.6 72.3H133.6v22.3h244.8zM423 245H89v22h334z" clip-rule="evenodd"/><path fill="var(--flag-palette-white, #eeeeee)" d="M380 256s-57.2 66.8-124 66.8-66.8-66.8-66.8-66.8 0-66.8 66.8-66.8S380 256 380 256"/><path fill="var(--flag-palette-black, #333333)" d="M256 322.8c-66.8 0-124-66.8-124-66.8s57.2-66.8 124-66.8"/><path fill="var(--flag-palette-white, #eeeeee)" d="M211.5 233.7h22.2v44.6h-22.2z"/><path fill="var(--flag-palette-black, #333333)" d="M278.3 233.7h22.2v44.6h-22.2z"/><path fill="var(--flag-palette-dark-brown, #584528)" fill-rule="evenodd" d="M111.3 256a22.3 22.3 0 1 1-44.5 0 22.3 22.3 0 0 1 44.5 0m334 0a22.3 22.3 0 1 1-44.6 0 22.3 22.3 0 0 1 44.5 0" clip-rule="evenodd"/></svg>
